X:718
T:Reel 718
M:4/4
K:Gmaj
L:1/8
dc|BcdB GBdB|cBAB cedc|Bcde dcBd| (3efg dc G2:|cd|ecdc BGBd|cBAB cdef|ecec dBGB|AFDE F2dc|BcAB GABG|ABcd e2fe|dgfd ccBc|AGFA G2|
